!!!OTL: Wiedersehen an der Bahre Ein Juengling, der auf Reisen ging,
!!!ARE: Europa, Mitteleuropa, Deutschland (BRD), Hessen, Kurhessen
!!!YOR: 3, S. 86
!!    1926 aufgezeichnet
!!!SCT: Q0056K
!!!YEM: Copyright 1995, estate of Helmut Schaffrath.
**kern
*ICvox
*Ivox
*M6/8
*k[b-]
*F:
{8f
=1
4f
8a
4cc
8a
=2
4a
8g
4g}
{8g
=3
4g
8dd
4cc
8b-
=4
4.b-
4a}
{8cc
=5
4cc
16ee
16gg
4gg
8b-
=6
4a
16cc
16ff
4ff}
{8ff
=7
4ee
8dd
4cc
8b-
=8
4.b-
4a}
{8cc
=9
4cc
16ee
16gg
4gg
8b-
=10
4a
16cc
16ff
4ff}
{8ff
=11
4ee
8dd
4cc
8b-
=12
4.b-
4a}
==
!!!AGN: Ballade, Abschied, Enttaeuschung, Tod, Selbstmord
!!!ONB: ESAC (Essen Associative Code) Database: BALLADE
!!!AMT: compound duple
!!!AIN: vox
!!!EED: Helmut Schaffrath
!!!EEV: 1.0
*-
